X:219
T:Eccles's Maggot
M:2/2
L:1/8
S:Colin Hume's website,  colinhume.com  - chords can also be printed below the stave.
N:A-music extended by Colin Hume from 4 bars to 8, in order to fit the dance.
Q:1/2=110
C:John Young, 1714
K:Bb
P:A
|: ba | "Bb"b2 f2 "F7"f2 e2 | "Bb"d3 c B2 gf | "Eb"gfgf "Cm"gfed | "F"c6ba |\
"Bb"b2 f2 "F7"f2 e2 | "Bb"d3 c "Gm"B2 gf | "Eb"gfgf "F7"edcB | "Bb"B6 :|
P:B
|: fg | "F"f2 c2 "C7"c2 B2 | "F"A3 G F2 BA | "Bb"BdBd "Eb"G2 cB | "Cm"cece "F7"A2 GF | "Eb"GA B2 "F7"B3 A | "Bb"B6 :|

